build/category/VoteSolid.svg

<svg xmlns="http://www.w3.org/2000/svg" fill="none" viewBox="0 0 24 24" focusable="false"><path d="M0 0H24V24H0z"/><path fill="#74767B" fill-rule="evenodd" d="M14.1094 3.58157C13.6017 3.07389 12.7786 3.07389 12.2709 3.58157L6.64346 9.20905C6.13578 9.71674 6.13578 10.5399 6.64346 11.0475L9.94749 14.3516L13.7952 14.3516L18.418 9.72867C18.9257 9.22099 18.9257 8.39787 18.418 7.89019L14.1094 3.58157ZM15.5623 7.6208C15.8199 7.87082 15.826 8.28234 15.576 8.53994L12.6264 11.5789C12.5059 11.703 12.341 11.774 12.1681 11.7762C11.9952 11.7784 11.8285 11.7115 11.705 11.5905L9.64209 9.56903C9.38569 9.31778 9.38151 8.90625 9.63276 8.64984C9.88401 8.39344 10.2955 8.38926 10.552 8.64051L12.1484 10.2049L14.6432 7.63452C14.8932 7.37692 15.3047 7.37077 15.5623 7.6208ZM4.17972 10.9748C4.24873 10.785 4.4891 10.7479 4.63203 10.8906L7.58401 13.8377C7.77324 14.0266 7.63945 14.35 7.37205 14.35L5.99992 14.35C5.64094 14.35 5.34992 14.641 5.34992 15C5.34992 15.359 5.64094 15.65 5.99992 15.65L17.9999 15.65C18.3589 15.65 18.6499 15.359 18.6499 15C18.6499 14.641 18.3589 14.35 17.9999 14.35L16.2609 14.35C15.992 14.35 15.8589 14.0234 16.0512 13.8355L19.2817 10.6779C19.4188 10.5438 19.6456 10.5712 19.7259 10.7453C19.9018 11.1271 20 11.5521 20 12L20 18C20 19.6568 18.6569 21 17 21L7 21C5.34315 21 4 19.6568 4 18L4 12C4 11.6399 4.06343 11.2947 4.17972 10.9748Z"/></svg>

<svg xmlns="http://www.w3.org/2000/svg" fill="none" viewBox="0 0 24 24" focusable="false"><path fill="#74767B" fill-rule="evenodd" d="M14.1 3.58c-.5-.51-1.33-.51-1.83 0L6.64 9.2c-.51.51-.51 1.33 0 1.84l3.3 3.31h3.85l4.62-4.63c.51-.5.51-1.33 0-1.83zm1.46 4.04c.25.25.26.66.01.91l-2.95 3.04c-.12.13-.28.2-.46.2a.65.65 0 0 1-.46-.18L9.64 9.56a.65.65 0 0 1-.01-.92c.25-.25.66-.26.92 0l1.59 1.56 2.5-2.57c.25-.26.66-.26.92-.01M4.17 10.97c.07-.19.31-.23.46-.08l2.95 2.94c.19.19.05.52-.21.52H6c-.36 0-.65.29-.65.65 0 .35.29.65.65.65h12c.35 0 .64-.3.64-.65 0-.36-.29-.65-.64-.65h-1.74c-.27 0-.41-.33-.21-.52l3.23-3.16c.13-.13.36-.1.44.07.18.38.28.81.28 1.26v6c0 1.65-1.35 3-3 3H7c-1.66 0-3-1.35-3-3v-6c0-.37.06-.71.17-1.03"/></svg>
